X: 10262
M: 3/4
L: 1/8
K: Eb
!mf!BG |\
E2BGE2 | "^>"D2(c2B2) | D2BFD2 | "^>"E2(g2e2) |\
E2BGE2 | "^>"D2(c2B2) | =AB(g_a)fd | e4 :: fd |\
cAcedc | BGe2GB | AFd2df | eBgeB=B |\
cAcedc | BGe2GB | ABdfad | e4 :: de |\
=efgfdB | =A2"^>"e4 |
c2 =a4 | [bB][c'c][d'd][=a=A][bB][gG] |\
=efgfdB | =A2"^>"e4 | [cC][fF][=a=A][c'c][e'e][aA] | [b4B4]B=B |\
cAcedc | BGe2GB | AFd2df | eBgeB=B |\
cAcedc | BGe2GB | ABdfad | He4 :|


